X:1
T:The Celebrated Harp Waltz
T:The Celebrated Harp Waltz
T:Anonymous
T:Public Domain - https://imslp.org/wiki/The_Celebrated_Harp_Waltz_(Anonymous)
T:Public Domain - https://imslp.org/wiki/The_Celebrated_Harp_Waltz_(Anonymous)
C:Anonymous
Z:Public Domain - https://imslp.org/wiki/The_Celebrated_Harp_Waltz_(Anonymous)
%%score { ( 1 4 ) | ( 2 3 ) }
L:1/8
M:3/4
K:E
V:1 treble nm="Con molto\n\nEspressione."
V:4 treble 
V:2 bass 
V:3 bass 
V:1
"^L.H." [EG]B,[EG]B,[EG]B, | [EGB]B,[EGB]B,[EGB]B, | [DFA]B,[DFA]B,[DFA]B, | [EG]B,[EG]B,[EG]B, | %4
 [EG]B,[EG]B,[EG]B, | [EGB]B,[EGB]B,[EGB]B, | ([DFA]B,[DFA]B,[DFA]B,) | [EG]2 !wedge![egbe']2 z2 | %8
 [EG]B,[EG]B,[EG]B, | [EGB]B,[EGB]B,[EGB]B, | [DFA]B,[DFA]B,[DFA]B, | [EG]B,[EG]B,[EG]B, | %12
 [EG]B,[EG]B,[EG]B, | [EGB]B,[EGB]B,[EGB]B, | ([DFA]B,[DFA]B,[DFA]B,) | [EG]2 !wedge![egbe']2 |] %16
 B2 | (Bf[fa][eg][df][ce]) | ([Bd][Ac][GB][FA][GB][FA]) | ([EG][FA][^^F^A][GB][Ac][ce]) | %20
 ([Ac][GB][^^F^A][GB][EG][GB]) | (Bf[fa][eg][df][ce]) | ([Bd][Ac][GB][^^F^A][GB][^F=A]) | %23
 ([EG]e[EB]G !arpeggio![B,Dc]>F) | [G,B,E]2 z2 B2 | (Bf[fa][eg][df][ce]) | %26
 ([Bd][Ac][GB][FA][GB][FA]) | ([EG][FA][^^F^A][GB][Ac][ce]) | ([Ac][GB][^^F^A][GB][EG][GB]) | %29
 (Bf[fa][eg][df][ce]) | ([Bd][Ac][GB][^^F^A][GB][^F=A]) | ([EG]e[EB]G !arpeggio![B,Dc]>F) | %32
 [G,B,E]2 z2 |] z2 |[I:staff +1] (6:4:6(E,/G,/B,/[I:staff -1]E/G/A/) (e2 d>c) | (^Bd !^!g3) f | %36
 (fe)(ed)(ce) | (d>^B G3) B | c2- (c/d/e/d/ f/e/d/c/) | (6:4:6(c/e/g/b/e/g/)!8va(! [bb']3 [^a^a'] | %40
 [bb'][^a^a'][=a=a'][gg'][aa']>[ff'] | [ee']2!8va)! z2 |][I:staff +1] B,2 | %43
 (G,B,)!pp!"^L.H."[I:staff -1] (GB) (gb) | [fa]>[gb][fa][^eg] !^![fa]2 | %45
[I:staff +1] (B,,/4D,/4F,/4A,/4)[I:staff -1] (B,/4D/4F/4A/4)!ff!"^L.H." (B/4d/4f/4a/4)!8va(! (b/4d'/4f'/4a'/4) g'2!8va)! | %46
 [Ge]>[^^Fd] [Ge]2[I:staff +1] B,2 | (G,B,)[I:staff -1] (GB) (gb) | [fa]>[gb][fa][^eg] !^![fa]2 | %49
[I:staff +1] (B,,/4D,/4F,/4A,/4)[I:staff -1] (B,/4D/4F/4A/4)"^L.H." (B/4d/4f/4a/4)!8va(! (b/4d'/4f'/4a'/4) g'2!8va)! | %50
 [Ge]2 !^![egbe']2 |] %51
V:2
 !^![E,,E,]2[I:staff -1] (!^![eg]2 !^!B2) |[I:staff +1] !^![E,,E,]2[I:staff -1] (!^![eg]2 !^!e2) | %2
[I:staff +1] !^![B,,,B,,]2[I:staff -1] (!^![fa]2 !^!d2) | %3
[I:staff +1] !^![E,,E,]2[I:staff -1] (!^!e'!^!d' !^!e'2) | %4
[I:staff +1] !^![E,,E,]2[I:staff -1] (!^![eg]2 !^!B2) | %5
[I:staff +1] !^![E,,E,]2[I:staff -1] (!^![gb]2 !^!e2) | %6
[I:staff +1] !wedge![B,,,B,,]!wedge!C,!wedge!D,!wedge!E,!wedge!F,!wedge!D, | %7
 E,2 !wedge![E,,E,]2 z2 | !^![E,,E,]2[I:staff -1] (!^![eg]2 !^!B2) | %9
[I:staff +1] !^![E,,E,]2[I:staff -1] (!^![eg]2 !^!e2) | %10
[I:staff +1] !^![B,,,B,,]2[I:staff -1] (!^![fa]2 !^!d2) | %11
[I:staff +1] !^![E,,E,]2[I:staff -1] (!^!e'!^!d' !^!e'2) | %12
[I:staff +1] !^![E,,E,]2[I:staff -1] (!^![eg]2 !^!B2) | %13
[I:staff +1] !^![E,,E,]2[I:staff -1] (!^![eg]2 !^!e2) | %14
[I:staff +1] !wedge![B,,,B,,]!wedge!C,!wedge!D,!wedge!E,!wedge!F,!wedge!D, | E,2 !wedge![E,,E,]2 |] %16
 z2 | (B,,2 F,2 B,2) | (D,2 F,2 B,2) | (E,2 G,2 [A,C]2) | (E,2 [E,G,]2 [G,B,]2) | (B,,2 F,2 B,2) | %22
 (D,2 F,2 B,2) | E,2 B,,2 [B,,,B,,]2 | [E,,E,]2 z2 z2 | (B,,2 F,2 B,2) | (D,2 F,2 B,2) | %27
 (E,2 G,2 [A,C]2) | (E,2 [E,G,]2 [G,B,]2) | (B,,2 F,2 B,2) | (D,2 F,2 B,2) | E,2 B,,2 [B,,,B,,]2 | %32
 [E,,E,]2 z2 |] G,2 | [C,,C,]2 [G,CE]2 [G,CE]2 | [G,,G,]2 [G,^B,F]2 [G,B,F]2 | %36
 [C,,C,]2 [G,CE]2 [G,CE]2 | [G,,G,]2 [G,^B,F]2 [G,B,F]2 | [C,,C,] G, [CE]G,[CE]A, | %39
 [G,,B,,]2[K:treble] [B,EG]2 [B,EG]2 |[K:bass] [B,,,B,,]2[K:treble] [B,DA]2 [B,DA]2 | %41
 [EG]2[K:bass] [E,,E,]2 |] z2 | E,,2[I:staff -1] E2 e2 | %44
[I:staff +1] [B,,,B,,]2[K:treble] [B,DA]2 [B,DF]2 |[K:bass] z6 | [E,B,]>[E,B,] [E,B,]2 z2 | %47
 E,,2[I:staff -1] E2 e2 |[I:staff +1] [B,,,B,,]2[K:treble] [B,DA]2 [B,DA]2 |[K:bass] z6 | %50
 [E,G,]2 !^![E,,C,]2 |] %51
V:3
 x6 | x6 | x6 | x6 | x6 | x6 | x6 | x6 | x6 | x6 | x6 | x6 | x6 | x6 | x6 | x4 |] x2 | x6 | x6 | %19
 x6 | x6 | x6 | x6 | x6 | x6 | x6 | x6 | x6 | x6 | x6 | x6 | x6 | x4 |] x2 | x6 | x6 | x6 | x6 | %38
 x6 | x2[K:treble] x4 |[K:bass] x2[K:treble] x4 | x2[K:bass] x2 |] x2 | E,2 x4 | x2[K:treble] x4 | %45
[K:bass] x6 | x6 | E,2 x4 | x2[K:treble] x4 |[K:bass] x6 | x4 |] %51
V:4
 x6 | x6 | x6 | x6 | x6 | x6 | x6 | x6 | x6 | x6 | x6 | x6 | x6 | x6 | x6 | x4 |] x2 | x6 | x6 | %19
 x6 | x6 | x6 | x6 | x6 | x6 | x6 | x6 | x6 | x6 | x6 | x6 | x6 | x4 |] x2 | x6 | x6 | x6 | x6 | %38
 x6 | x2!8va(! x4 | x6 | x2!8va)! x2 |] x2 | x6 | x6 | x3!8va(! x c'2!8va)! | x6 | x6 | x6 | %49
 x3!8va(! x c'2!8va)! | x4 |] %51

